icon/fa/fill-drip.svg

<svg xmlns="http://www.w3.org/2000/svg" viewBox="0 0 576 512"><!--! Font Awesome Free 6.1.2 by @fontawesome - https://fontawesome.com License - https://fontawesome.com/license/free (Icons: CC BY 4.0, Fonts: SIL OFL 1.1, Code: MIT License) Copyright 2022 Fonticons, Inc.--><path d="M41.37 9.372c12.5-12.496 32.76-12.496 45.26 0L168 90.74l53.1-53.08c28.1-28.121 73.7-28.121 101.8 0L474.3 189.1c28.2 28.1 28.2 73.7 0 101.8L283.9 481.4c-37.5 37.5-98.3 37.5-135.8 0L30.63 363.9c-37.493-37.5-37.493-98.3 0-135.8l92.07-93-81.33-80.47c-12.49-12.5-12.49-32.76 0-45.258zM217.4 230.6 168 181.3l-92.12 92.1c-4.19 4.2-6.98 9.2-8.36 14.6H386.7l42.4-42.3c3.1-3.2 3.1-8.2 0-11.4L277.7 82.91a8.112 8.112 0 0 0-11.4 0l-53 53.09 49.3 49.4c12.5 12.5 12.5 32.7 0 45.2s-32.7 12.5-45.2 0zM448 448c0-25.2 32.6-79.6 51.2-108.7 6.1-9.4 19.5-9.4 25.6 0C543.4 368.4 576 422.8 576 448c0 35.3-28.7 64-64 64s-64-28.7-64-64z"/></svg>

<svg xmlns="http://www.w3.org/2000/svg" viewBox="0 0 576 512" height="1em" width="1em">
<!--! Font Awesome Free 6.1.2 by @fontawesome - https://fontawesome.com License - https://fontawesome.com/license/free (Icons: CC BY 4.0, Fonts: SIL OFL 1.1, Code: MIT License) Copyright 2022 Fonticons, Inc.-->
  <path d="M41.37 9.372C53.87-3.124 74.13-3.124 86.63 9.372L168 90.74L221.1 37.66C249.2 9.539 294.8 9.539 322.9 37.66L474.3 189.1C502.5 217.2 502.5 262.8 474.3 290.9L283.9 481.4C246.4 518.9 185.6 518.9 148.1 481.4L30.63 363.9C-6.863 326.4-6.863 265.6 30.63 228.1L122.7 135.1L41.37 54.63C28.88 42.13 28.88 21.87 41.37 9.372V9.372zM217.4 230.6L168 181.3L75.88 273.4C71.69 277.6 68.9 282.6 67.52 288H386.7L429.1 245.7C432.2 242.5 432.2 237.5 429.1 234.3L277.7 82.91C274.5 79.79 269.5 79.79 266.3 82.91L213.3 136L262.6 185.4C275.1 197.9 275.1 218.1 262.6 230.6C250.1 243.1 229.9 243.1 217.4 230.6L217.4 230.6zM448 448C448 422.8 480.6 368.4 499.2 339.3C505.3 329.9 518.7 329.9 524.8 339.3C543.4 368.4 576 422.8 576 448C576 483.3 547.3 512 512 512C476.7 512 448 483.3 448 448H448z"/>
</svg>
